src/assets/images/toolbox/codepen.svg

<svg
  width="32"
  height="32"
  viewBox="0 0 32 32"
  fill="transparent"
  xmlns="http://www.w3.org/2000/svg">
  <path
    fill="black"
    d="M15.9469 0.000625L15.9747 0H16.0259L16.0609 0.001L16.1025 0.00325C16.3708 0.021 16.6198 0.10875 16.8318 0.24825L31.298 9.84875C31.4513 9.94609 31.5857 10.0703 31.6948 10.2155L31.7228 10.2537L31.7422 10.2819C31.9088 10.5288 31.9986 10.8195 32.0002 11.1174V20.8511C32.0044 21.1382 31.9266 21.4205 31.7759 21.6649L31.7594 21.691L31.7422 21.7173C31.6352 21.8767 31.4987 22.0144 31.3402 22.1227L16.8552 31.7353C16.6328 31.8877 16.3736 31.9777 16.1047 31.9959L16.0405 31.9989L16.0002 31.9995H15.9739L15.9345 31.998L15.8937 31.9958C15.6269 31.9774 15.3697 31.8883 15.1488 31.7376L0.706288 22.153C0.575122 22.0703 0.457525 21.9679 0.357663 21.8493L0.354288 21.845C0.322213 21.8067 0.292051 21.7669 0.263913 21.7256L0.258163 21.7173C0.0867054 21.4632 -0.00328961 21.163 0.000162696 20.8565V11.148C-0.00362892 10.8899 0.0589091 10.6351 0.181788 10.4081L0.212788 10.3538L0.225288 10.3328C0.346611 10.1362 0.511102 9.9698 0.706288 9.84625L15.1462 0.263375C15.354 0.121012 15.5943 0.0330772 15.8449 0.007625L15.9022 0.002875L15.9469 0.000625ZM8.75741 17.8248L4.24079 20.8631L14.4857 27.6614V21.6782L8.75741 17.8248ZM23.2428 17.8246L17.5145 21.6782V27.6614L27.7592 20.8629L23.2428 17.8246ZM16.0003 12.9524L11.4712 15.9991L16.0002 19.0454L20.5292 15.9991L16.0003 12.9524ZM3.02779 13.9703V18.0287L6.04429 15.9995L3.02779 13.9703ZM28.9699 13.9719L25.9559 15.9995L28.9699 18.0271V13.9719ZM14.4857 4.3355L4.23991 11.1351L8.75779 14.174L14.4857 10.3208V4.3355ZM17.5145 4.33713V10.3208L23.2424 14.174L27.7599 11.1355L17.5145 4.33713Z"
  />
</svg>

<svg xmlns="http://www.w3.org/2000/svg" width="32" height="32" fill="transparent" xmlns:v="https://vecta.io/nano">
  <path fill="#000"
    d="M15.947.001L15.975 0h.051l.035.001.042.002c.268.018.517.106.729.245l14.466 9.601c.153.097.288.222.397.367l.028.038.019.028a1.51 1.51 0 0 1 .258.835v9.734a1.51 1.51 0 0 1-.224.814l-.017.026-.017.026a1.51 1.51 0 0 1-.402.405l-14.485 9.613a1.51 1.51 0 0 1-.75.261l-.064.003L16 32h-.026l-.039-.002-.041-.002c-.267-.018-.524-.107-.745-.258L.706 22.153c-.131-.083-.249-.185-.349-.304l-.003-.004-.09-.119-.006-.008A1.51 1.51 0 0 1 0 20.857v-9.708a1.51 1.51 0 0 1 .182-.74l.031-.054.012-.021a1.52 1.52 0 0 1 .481-.487L15.146.263c.208-.142.448-.23.699-.256l.057-.005.045-.002zM8.757 17.825l-4.517 3.038 10.245 6.798v-5.983l-5.728-3.853zm14.485 0l-5.728 3.854v5.983l10.245-6.799-4.516-3.038zM16 12.952l-4.529 3.047L16 19.045l4.529-3.046L16 12.952zM3.028 13.97v4.058L6.044 16 3.028 13.97zm25.942.002L25.956 16l3.014 2.028v-4.055zM14.486 4.336l-10.246 6.8 4.518 3.039 5.728-3.853V4.336zm3.029.002v5.984l5.728 3.853 4.517-3.038-10.245-6.798z" />
</svg>
